!!!!SEGMENT: pl-wnifc--13846--001-047_anonim--piesni-polskie-i-ruskie-ludu-galicyjskiego-47-rabia-las-rabia-las.krn
!!!kernsource:
!!!cenid: 18xx:3269
!!!COM: Anonim
!!!COM-rismID: pe30004985
!!!CDT:
!!!CNT:
!!!GTL: Pieśni polskie i ruskie ludu galicyjskiego
!!!OTL: 47. Rąbią las, rąbią las
!!!OMV: 047
!!!PDT: 1833
!!!AGN:
!!!SMS-siglum: PL-Wnifc
!!!SMS-shelfmark: 13846
!!!SMS-shelfwork: 001-047 G
!!!SMS-variant:
!!!SMS-altvar:
!!!NIFC-rismSourceID: 1001036701
!!!NIFC-rismChildID: 1001037024
!!!NIFC-islandoraID: nifc:210326
!!!URL-pdf-islandora: https://repozytorium.nifc.pl/islandora/object/nifc%3A210326/datastream/PDF/view
!!!URL-scan:
!!!IIIF:
!!!ONB-nifc:
!!!OMD: Krakowiak.
!!!AIN: 1 piano 1 vox
!!!key: G
**kern	**kern	**kern	**text
*part2	*part2	*part1	*part1
*staff3	*staff2	*staff1	*staff1
*I"Fortepian	*I"Fortepian	*I"Głos	*
*Ipiano	*Ipiano	*Ivox	*
*ICklav	*ICklav	*ICvox	*
*IGacmp	*IGacmp	*IGsolo	*
*clefF4	*clefG2	*clefG2	*
*k[f#]	*k[f#]	*k[f#]	*
*G:	*G:	*G:	*
*M2/4	*M2/4	*M2/4	*
*>[A,B,B]	*>[A,B,B]	*>[A,B,B]	*
=1	=1	=1	=1
*>A	*>A	*>A	*
!	!	!LO:TX:a:t=D.b.Б.\n401.	!
4GGG/ 4GG/	4.b\ 4.dd\	4.dd\	Rą-
4G\ 4B\ 4d\	.	.	.
.	(16b\LL 16dd\	(>16dd\LL	-bią
.	16a#X\JJ) 16cc#X\	16cc#X\JJ)	.
=2	=2	=2	=2
4GGG/ 4GG/	8b\L 8dd\	8dd\	las,
.	8b\J 8dd\	8dd\	rą-
4G\ 4B\ 4d\	(16b\LL 16dd\	(>16dd\LL	-bią
.	16a#X/J) 16cc#X/	16cc#X\JJ)	.
.	8b\J 8dd\	8dd\	las,
!!LO:LB:g=original
=3	=3	=3	=3
4GGG/ 4GG/	8.b\L 8.gg\	8.gg\	a
.	16b\Jk 16dd\	16dd\	las
4G\ 4B\ 4d\	8g\L 8b\	8b\	bę-
.	8b\J 8dd\	8dd\	-dzie
=4	=4	=4	=4
4DD/	(8b\L 8dd\	(>8dd\L	la-
.	8a\J) 8cc\	8cc\J)	.
4D\ 4F#\ 4A\	4d/ 4a/	4a/	-sem,
=5	=5	=5	=5
4GG/	8g/L	8g/	a
.	8b/J	8b\	las
4G\ 4B\ 4d\	8b\L	8b\	bę-
.	8qcc/	.	.
.	16b\L	8b\	-dzie
.	(32a/L	.	.
.	32b\JJJ)	.	.
!!LO:LB:g=original
=6	=6	=6	=6
4DD/ 4D/	(8.b\L 8.dd\	(>8.dd\L	la-
.	16a\Jk) 16cc\	16cc\Jk)	.
4D\ 4A\ 4d\	4f#/ 4a/	4a/	-sem
=7!|:	=7!|:	=7!|:	=7!|:
*>B	*>B	*>B	*
4GGG/ 4GG/	8g/	8g/	i
.	4g/ 4b/	4b/	nas
4GG\ 4BB\ 4D\ 4G\	.	.	.
.	8g/ 8b/	8b/	kra-
=8	=8	=8	=8
4CC/	8e\ 8cc\	8cc\	-ko-
.	4cc\ 4ee\	4ee\	-wia-
4C\ 4E\ 4G\ 4c\	.	.	.
.	8cc\ 8ee\	8ee\	-ków-
!!LO:LB:g=original
=9	=9	=9	=9
4GGG/	8b\L 8dd\	8dd\	-dość
.	8b\ 8dd\	8dd\	bę-
4GG\ 4BB\ 4D\ 4G\	8g/ 8b/	8g\	-dzie
.	8b\J 8dd\	8dd\	tym
=10	=10	=10	=10
4DD/	(8b\L 8dd\	(>8dd\L	cza-
.	8a\J) 8cc\	8cc\J)	.
4D\ 4F#\ 4d\	4f#/ 4a/	4a/	-sem
!!LO:PB:g=original
=:|!	=:|!	=:|!	=:|!
*-	*-	*-	*-
!!!system-decoration: s1,{(s2,s3)}
!!!RDF**kern: < = below
!!!RDF**kern: > = above
!!!ENC: Marta Chmielewska
!!!END: 2021-11-10
!!!YEC: Copyright 2022 Narodowy Instytut Fryderyka Chopina (https://polishscores.org)
!!!YEM: License CC-BY-4.0 (https://creativecommons.org/licenses/by/4.0)
